X: 1
T: Kaksipa poikaa Kurikasta
Z: 2004 John Chambers <jc@trillian.mit.edu>
M: C
L: 1/8
K: D
|: "D"D2FF D2F2 | D2F2 A,2 A,A, | "A7"C2E2 C2E2 | "D"D4 D2z2 :|
|: "G"G2B2 d2BB | "D"A2F2 F2F2 | "A7"GG EE E2 E2 |1 "D"D2F2 A2z2 :|2 "D"D4 D2z2 |]
